src/assets/svg/sending.svg

<svg height="42" viewBox="0 0 42 42" width="42" xmlns="http://www.w3.org/2000/svg"><g fill-rule="evenodd"><path d="m20.9539407 28.597c-2.012037 0-3.6429259 1.6185-3.6429259 3.6045s1.6308889 3.597 3.6429259 3.597c2.0105186 0 3.6414074-1.611 3.6414074-3.597s-1.6308888-3.6045-3.6414074-3.6045"/><path d="m20.9539407 21.403c-3.2329259 0-6.2821111 1.4055-8.370074 3.861-.6468889.756-.5451482 1.8915.2247407 2.5305.3386296.288.7531852.423 1.1692593.423.5223703 0 1.0371481-.2175 1.400074-.639 1.387926-1.641 3.4227408-2.5785 5.576-2.5785 2.1532593 0 4.1865556.9375 5.5744815 2.5785.3629259.4215.8792222.639 1.4000741.639.4160741 0 .8306296-.135 1.1692593-.423.7714074-.639.8716296-1.7745.2247407-2.5305-2.087963-2.4555-5.1356296-3.861-8.3685556-3.861"/><path d="m20.9539407 14.2015c-5.3801111 0-10.4641111 2.343-13.94607403 6.4335-.64688889.762-.55122223 1.8975.22018518 2.5365.34318519.282.75925926.4215 1.17381482.4215.51629629 0 1.03259259-.216 1.394-.6375 2.78800003-3.276 6.85155553-5.157 11.15807403-5.157 4.3065186 0 8.3685556 1.881 11.1565556 5.157.3629259.4215.8777037.6375 1.394.6375.4160741 0 .8306296-.1335 1.1753333-.4215.7714074-.639.8716297-1.7745.2186667-2.5365-3.481963-4.0905-8.5644444-6.4335-13.9445556-6.4335"/><path d="m40.4805704 16.012c-4.875963-5.7255-11.9932593-9.012-19.5266297-9.012-7.5333703 0-14.65218514 3.2865-19.52814811 9.012-.64688889.762-.54514815 1.8975.22625926 2.5365.33711111.282.75318519.4215 1.16774074.4215.52237037 0 1.03866667-.216 1.394-.6375 4.182-4.917 10.28037041-7.7355 16.74014811-7.7355 6.4537037 0 12.5566297 2.8185 16.7386297 7.7295.3553333.4275.8716296.6435 1.394.6435.4145555 0 .8306296-.1395 1.1692592-.4215.7698889-.639.8716297-1.7745.2247408-2.5365"/></g></svg>

<?xml version="1.0" encoding="UTF-8" standalone="no"?>
<svg width="42px" height="42px" viewBox="0 0 42 42" version="1.1" xmlns="http://www.w3.org/2000/svg" xmlns:xlink="http://www.w3.org/1999/xlink">
    <!-- Generator: Sketch 3.6.1 (26313) - http://www.bohemiancoding.com/sketch -->
    <title>sending</title>
    <desc>Created with Sketch.</desc>
    <defs></defs>
    <g id="Page-1" stroke="none" stroke-width="1" fill="none" fill-rule="evenodd">
        <g id="sending" fill="#000000">
            <path d="M20.9539407,28.597 C18.9419037,28.597 17.3110148,30.2155 17.3110148,32.2015 C17.3110148,34.1875 18.9419037,35.7985 20.9539407,35.7985 C22.9644593,35.7985 24.5953481,34.1875 24.5953481,32.2015 C24.5953481,30.2155 22.9644593,28.597 20.9539407,28.597" id="layer-1"></path>
            <path d="M20.9539407,21.403 C17.7210148,21.403 14.6718296,22.8085 12.5838667,25.264 C11.9369778,26.02 12.0387185,27.1555 12.8086074,27.7945 C13.147237,28.0825 13.5617926,28.2175 13.9778667,28.2175 C14.500237,28.2175 15.0150148,28 15.3779407,27.5785 C16.7658667,25.9375 18.8006815,25 20.9539407,25 C23.1072,25 25.1404963,25.9375 26.5284222,27.5785 C26.8913481,28 27.4076444,28.2175 27.9284963,28.2175 C28.3445704,28.2175 28.7591259,28.0825 29.0977556,27.7945 C29.869163,27.1555 29.9693852,26.02 29.3224963,25.264 C27.2345333,22.8085 24.1868667,21.403 20.9539407,21.403" id="layer-2"></path>
            <path d="M20.9539407,14.2015 C15.5738296,14.2015 10.4898296,16.5445 7.00786667,20.635 C6.36097778,21.397 6.45664444,22.5325 7.22805185,23.1715 C7.57123704,23.4535 7.98731111,23.593 8.40186667,23.593 C8.91816296,23.593 9.43445926,23.377 9.79586667,22.9555 C12.5838667,19.6795 16.6474222,17.7985 20.9539407,17.7985 C25.2604593,17.7985 29.3224963,19.6795 32.1104963,22.9555 C32.4734222,23.377 32.9882,23.593 33.5044963,23.593 C33.9205704,23.593 34.3351259,23.4595 34.6798296,23.1715 C35.451237,22.5325 35.5514593,21.397 34.8984963,20.635 C31.4165333,16.5445 26.3340519,14.2015 20.9539407,14.2015" id="layer-3"></path>
            <path d="M40.4805704,16.012 C35.6046074,10.2865 28.4873111,7 20.9539407,7 C13.4205704,7 6.30175556,10.2865 1.42579259,16.012 C0.778903704,16.774 0.880644444,17.9095 1.65205185,18.5485 C1.98916296,18.8305 2.40523704,18.97 2.81979259,18.97 C3.34216296,18.97 3.85845926,18.754 4.21379259,18.3325 C8.39579259,13.4155 14.494163,10.597 20.9539407,10.597 C27.4076444,10.597 33.5105704,13.4155 37.6925704,18.3265 C38.0479037,18.754 38.5642,18.97 39.0865704,18.97 C39.5011259,18.97 39.9172,18.8305 40.2558296,18.5485 C41.0257185,17.9095 41.1274593,16.774 40.4805704,16.012" id="layer-4"></path>
        </g>
    </g>
</svg>
